Super Flat Remix/status/printer-printing-symbolic.svg

<?xml version="1.0" encoding="UTF-8" standalone="no"?>
<!-- Created with Inkscape (http://www.inkscape.org/) -->
<svg id="svg7384" xmlns:rdf="http://www.w3.org/1999/02/22-rdf-syntax-ns#" style="enable-background:new" xmlns="http://www.w3.org/2000/svg" xmlns:osb="http://www.openswatchbook.org/uri/2009/osb" height="16" width="16" version="1.1" xmlns:cc="http://creativecommons.org/ns#" xmlns:dc="http://purl.org/dc/elements/1.1/">
 <metadata id="metadata90">
  <rdf:RDF>
   <cc:Work rdf:about="">
    <dc:format>image/svg+xml</dc:format>
    <dc:type rdf:resource="http://purl.org/dc/dcmitype/StillImage"/>
    <dc:title>Paper Symbolic Icon Theme</dc:title>
   </cc:Work>
  </rdf:RDF>
 </metadata>
 <title id="title8473">Paper Symbolic Icon Theme</title>
 <defs id="defs7386">
  <filter id="filter7554" color-interpolation-filters="sRGB">
   <feBlend id="feBlend7556" in2="BackgroundImage" mode="darken"/>
  </filter>
 </defs>
 <g id="layer9" transform="translate(-445 351)">
  <g id="layer1-6-6" transform="translate(445 -351)">
   <path id="path3520-7" style="fill:#555" d="m2 4c-0.5 0-1 0.5-1 1v4c0 0.5 0.5 1 1 1h1v-2h10v2h1c0.5 0 1-0.5 1-1v-4c0-0.5-0.5-1-1-1h-12z"/>
   <path id="path4804-6" style="fill:#555" d="m4 1v2h8v-2h-8z"/>
   <path id="path4806-79" style="fill:#555" d="m4 9v5h8v-5z"/>
  </g>
 </g>
</svg>

<?xml version='1.0' encoding='UTF-8' standalone='no'?>
<!-- Created with Inkscape (http://www.inkscape.org/) -->

<svg xmlns:cc='http://creativecommons.org/ns#' xmlns:dc='http://purl.org/dc/elements/1.1/' sodipodi:docname='printer-printing-symbolic.svg' inkscape:export-filename='/home/sam/source-symbolic.png' inkscape:export-xdpi='270' inkscape:export-ydpi='270' height='16' id='svg7384' xmlns:inkscape='http://www.inkscape.org/namespaces/inkscape' xmlns:osb='http://www.openswatchbook.org/uri/2009/osb' xmlns:rdf='http://www.w3.org/1999/02/22-rdf-syntax-ns#' xmlns:sodipodi='http://sodipodi.sourceforge.net/DTD/sodipodi-0.dtd' style='enable-background:new' xmlns:svg='http://www.w3.org/2000/svg' version='1.1' inkscape:version='0.48.4 r9939' width='16' xmlns='http://www.w3.org/2000/svg'>
  <sodipodi:namedview inkscape:bbox-nodes='true' inkscape:bbox-paths='true' bordercolor='#666666' borderlayer='false' borderopacity='1' inkscape:current-layer='layer9' inkscape:cx='27.94577' inkscape:cy='-10.0009' gridtolerance='10' inkscape:guide-bbox='true' guidetolerance='10' id='namedview88' inkscape:object-nodes='true' inkscape:object-paths='true' objecttolerance='10' pagecolor='#f7f7f7' inkscape:pageopacity='1' inkscape:pageshadow='2' showborder='false' showgrid='false' showguides='true' inkscape:showpageshadow='false' inkscape:snap-bbox='true' inkscape:snap-bbox-edge-midpoints='false' inkscape:snap-bbox-midpoints='false' inkscape:snap-center='false' inkscape:snap-global='true' inkscape:snap-grids='true' inkscape:snap-intersection-paths='true' inkscape:snap-midpoints='true' inkscape:snap-nodes='true' inkscape:snap-object-midpoints='true' inkscape:snap-others='true' inkscape:snap-page='false' inkscape:snap-smooth-nodes='true' inkscape:snap-to-guides='true' inkscape:window-height='706' inkscape:window-maximized='1' inkscape:window-width='1366' inkscape:window-x='0' inkscape:window-y='32' inkscape:zoom='1'>
    <inkscape:grid color='#000000' dotted='false' empcolor='#0800ff' empopacity='0.4627451' empspacing='4' enabled='true' id='grid4866' opacity='0.16470588' originx='-204.0002px' originy='-568.00336px' snapvisiblegridlinesonly='true' spacingx='0.25px' spacingy='0.25px' type='xygrid' visible='true'/>
  </sodipodi:namedview>
  <metadata id='metadata90'>
    <rdf:RDF>
      <cc:Work rdf:about=''>
        <dc:format>image/svg+xml</dc:format>
        <dc:type rdf:resource='http://purl.org/dc/dcmitype/StillImage'/>
        <dc:title>Paper Symbolic Icon Theme</dc:title>
      </cc:Work>
    </rdf:RDF>
  </metadata>
  <title id='title8473'>Paper Symbolic Icon Theme</title>
  <defs id='defs7386'>
    <linearGradient id='linearGradient5606' osb:paint='solid'>
      <stop id='stop5608' offset='0' style='stop-color:#000000;stop-opacity:1;'/>
    </linearGradient>
    <filter inkscape:collect='always' color-interpolation-filters='sRGB' id='filter7554'>
      <feBlend inkscape:collect='always' id='feBlend7556' in2='BackgroundImage' mode='darken'/>
    </filter>
  </defs>
  <g inkscape:groupmode='layer' id='layer9' inkscape:label='status' style='display:inline' transform='translate(-445.0004,351.00336)'>
    <g id='g10819-6' inkscape:label='accessories-calculator' transform='translate(397.0004,-749.00336)'>
      
    </g>
    <g id='layer1-6-6' inkscape:label='Layer 1' transform='translate(445.0004,-351.00336)'>
      <path inkscape:connector-curvature='0' d='M 2,4 C 1.5,4 1,4.5 1,5 l 0,4 c 0,0.5 0.5,1 1,1 l 1,0 0,-2 10,0 0,2 1,0 c 0.5,0 1,-0.5 1,-1 L 15,5 C 15,4.5 14.5,4 14,4 L 2,4 z' id='path3520-7' sodipodi:nodetypes='ccccccccccccc' style='fill:#555555;fill-opacity:1;stroke:none'/>
      <path inkscape:connector-curvature='0' d='M 4,1 4,3 12,3 12,1 4,1 z' id='path4804-6' sodipodi:nodetypes='ccccc' style='fill:#555555;fill-opacity:1;stroke:none'/>
      <path inkscape:connector-curvature='0' d='M 4,9.0000001 4,14 l 8,0 0,-5 z' id='path4806-79' sodipodi:nodetypes='ccccc' style='fill:#555555;fill-opacity:1;stroke:none'/>
    </g>
  </g>
  <g inkscape:groupmode='layer' id='layer10' inkscape:label='devices' style='display:inline;filter:url(#filter7554)' transform='translate(-445.0004,351.00336)'/>
  <g inkscape:groupmode='layer' id='layer1' inkscape:label='places' style='display:inline' transform='translate(-204.0002,-265.99664)'/>
  <g inkscape:groupmode='layer' id='layer14' inkscape:label='mimetypes' style='display:inline' transform='translate(-445.0004,351.00336)'/>
  <g inkscape:groupmode='layer' id='layer15' inkscape:label='emblems' style='display:inline' transform='translate(-445.0004,351.00336)'/>
  <g inkscape:groupmode='layer' id='g71291' inkscape:label='emotes' style='display:inline' transform='translate(-445.0004,351.00336)'/>
  <g inkscape:groupmode='layer' id='layer2' inkscape:label='categories' style='display:inline' transform='translate(-204.0002,-115.99664)'/>
  <g inkscape:groupmode='layer' id='g6058' inkscape:label='apps' style='display:inline' transform='translate(-204.0002,-115.99664)'/>
  <g inkscape:groupmode='layer' id='layer12' inkscape:label='actions' style='display:inline' transform='translate(-445.0004,351.00336)'/>
</svg>
